docs/images/dashboards-icon.svg

<svg viewBox="0 0 118.92 118.92" xmlns="http://www.w3.org/2000/svg"><circle cx="59.46" cy="59.46" fill="#ff495c" r="59.46"/><g fill="#f5f4f3"><path d="m36.91 39.77a2.46 2.46 0 1 1 2.46-2.46 2.47 2.47 0 0 1 -2.46 2.46zm0-3.24a.78.78 0 1 0 .78.78.78.78 0 0 0 -.78-.78z"/><path d="m44.29 39.77a2.46 2.46 0 1 1 2.46-2.46 2.47 2.47 0 0 1 -2.46 2.46zm0-3.24a.78.78 0 1 0 .78.78.78.78 0 0 0 -.78-.78z"/><path d="m51.67 39.77a2.46 2.46 0 1 1 2.46-2.46 2.47 2.47 0 0 1 -2.46 2.46zm0-3.24a.78.78 0 1 0 .78.78.78.78 0 0 0 -.78-.78z"/><path d="m89.68 89.62h-60.44v-60.44h60.44zm-57.2-3.24h54v-54h-54z"/><path d="m30.86 41.95h57.2v3.24h-57.2z"/><path d="m30.86 86.5h57.2v3.24h-57.2z"/><path d="m55.71 82.49h-18.65v-34.6h18.65zm-15.41-3.24h12.17v-28.12h-12.17z"/><path d="m81 82.49h-20.44v-10.39h20.44zm-17.2-3.24h14v-3.91h-14z"/><path d="m70.79 68.11a10.11 10.11 0 1 1 10.12-10.11 10.13 10.13 0 0 1 -10.12 10.11zm0-17a6.87 6.87 0 1 0 6.88 6.89 6.88 6.88 0 0 0 -6.88-6.87z"/><path d="m64.63 64 .19.21a8.49 8.49 0 1 0 12-12l-.2-.21z"/><path d="m38.69 57.85h14.92v3.24h-14.92z"/><path d="m38.69 68.18h14.92v3.24h-14.92z"/></g></svg>

<svg xmlns="http://www.w3.org/2000/svg" viewBox="0 0 118.92 118.92"><defs><style>.cls-1{fill:#ff495c;}.cls-2{fill:#f5f4f3;}</style></defs><title>dashboard-icon</title><g id="Layer_2" data-name="Layer 2"><g id="Layer_1-2" data-name="Layer 1"><circle class="cls-1" cx="59.46" cy="59.46" r="59.46"/><path class="cls-2" d="M36.91,39.77a2.46,2.46,0,1,1,2.46-2.46A2.47,2.47,0,0,1,36.91,39.77Zm0-3.24a.78.78,0,1,0,.78.78A.78.78,0,0,0,36.91,36.53Z"/><path class="cls-2" d="M44.29,39.77a2.46,2.46,0,1,1,2.46-2.46A2.47,2.47,0,0,1,44.29,39.77Zm0-3.24a.78.78,0,1,0,.78.78A.78.78,0,0,0,44.29,36.53Z"/><path class="cls-2" d="M51.67,39.77a2.46,2.46,0,1,1,2.46-2.46A2.47,2.47,0,0,1,51.67,39.77Zm0-3.24a.78.78,0,1,0,.78.78A.78.78,0,0,0,51.67,36.53Z"/><path class="cls-2" d="M89.68,89.62H29.24V29.18H89.68Zm-57.2-3.24h54v-54h-54Z"/><rect class="cls-2" x="30.86" y="41.95" width="57.2" height="3.24"/><rect class="cls-2" x="30.86" y="86.5" width="57.2" height="3.24"/><path class="cls-2" d="M55.71,82.49H37.06V47.89H55.71ZM40.3,79.25H52.47V51.13H40.3Z"/><path class="cls-2" d="M81,82.49H60.56V72.1H81ZM63.8,79.25h14V75.34h-14Z"/><path class="cls-2" d="M70.79,68.11A10.11,10.11,0,1,1,80.91,58,10.13,10.13,0,0,1,70.79,68.11Zm0-17A6.87,6.87,0,1,0,77.67,58,6.88,6.88,0,0,0,70.79,51.13Z"/><path class="cls-2" d="M64.63,64l.19.21a8.49,8.49,0,1,0,12-12L76.62,52Z"/><rect class="cls-2" x="38.69" y="57.85" width="14.92" height="3.24"/><rect class="cls-2" x="38.69" y="68.18" width="14.92" height="3.24"/></g></g></svg>
